img/winter.svg

<svg width="21" height="21" viewBox="0 0 21 21" fill="none" xmlns="http://www.w3.org/2000/svg">
<circle cx="10.5" cy="10.5" r="10.5" fill="#005BFF"/>
<path d="M17.9557 11.53C18.0805 11.8374 17.9326 12.1879 17.6252 12.3128L15.9555 12.9918L17.5008 13.9203C17.789 14.0849 17.8892 14.4519 17.7246 14.7401C17.56 15.0283 17.193 15.1285 16.9048 14.9639C16.8971 14.9595 16.8894 14.9549 16.8818 14.9501L15.3367 14.0217L15.5211 15.8153C15.5497 16.146 15.3048 16.4372 14.9741 16.4657C14.651 16.4937 14.364 16.2601 14.3257 15.938L14.0493 13.2481L11.0965 11.4743V14.919L13.2597 16.5413C13.5252 16.7405 13.579 17.1171 13.3799 17.3826C13.1807 17.6481 12.8041 17.7019 12.5386 17.5028L11.0965 16.4212V18.2239C11.0965 18.5557 10.8274 18.8248 10.4956 18.8248C10.1637 18.8248 9.89469 18.5557 9.89469 18.2239V16.4212L8.45254 17.5028C8.18706 17.7019 7.81041 17.6481 7.61129 17.3826C7.41216 17.1171 7.46596 16.7405 7.73144 16.5413L9.89463 14.919V11.4743L6.9421 13.2485L6.66568 15.9384C6.6371 16.2691 6.34592 16.5139 6.01528 16.4854C5.68464 16.4568 5.43977 16.1656 5.46835 15.835C5.46892 15.8286 5.46955 15.8221 5.47034 15.8157L5.65471 14.0221L4.10957 14.9505C3.82901 15.1278 3.45786 15.044 3.28061 14.7635C3.10336 14.4829 3.18709 14.1118 3.46765 13.9345C3.47519 13.9298 3.48288 13.9252 3.49062 13.9207L5.03587 12.9922L3.36623 12.3132C3.06081 12.1834 2.91847 11.8305 3.0483 11.5251C3.17521 11.2265 3.51621 11.0826 3.81865 11.2L6.32347 12.2186L9.32907 10.4123L6.32321 8.60623L3.81839 9.62515C3.50899 9.74521 3.16087 9.59166 3.04082 9.28227C2.92349 8.97983 3.06741 8.63883 3.36597 8.51192L5.0356 7.8329L3.49047 6.90419C3.20227 6.73961 3.1021 6.37259 3.26664 6.08445C3.43123 5.79625 3.79824 5.69608 4.08638 5.86062C4.09413 5.86507 4.10177 5.86967 4.10936 5.87443L5.6545 6.80283L5.47013 5.00921C5.43627 4.67909 5.67642 4.38399 6.00654 4.35013C6.33666 4.31627 6.63177 4.55642 6.66563 4.88654L6.94205 7.57641L9.89479 9.35051V5.90573L7.7316 4.28335C7.46601 4.08433 7.41205 3.70774 7.61108 3.44215C7.8101 3.17655 8.18669 3.1226 8.45228 3.32162C8.45244 3.32173 8.45254 3.32183 8.4527 3.32194L9.89484 4.40351V2.60089C9.89479 2.26904 10.1638 2 10.4957 2C10.8275 2 11.0966 2.26904 11.0966 2.60089V4.40356L12.5387 3.32199C12.8042 3.12286 13.1808 3.17666 13.38 3.44215C13.5791 3.70763 13.5253 4.08427 13.2598 4.2834L11.0966 5.90578V9.35051L14.0493 7.5762L14.3257 4.88633C14.3649 4.55679 14.6638 4.32139 14.9934 4.36054C15.3155 4.3988 15.549 4.68579 15.5211 5.00895L15.3367 6.80256L16.8818 5.87417C17.1624 5.69692 17.5336 5.78065 17.7108 6.06126C17.8881 6.34182 17.8043 6.71297 17.5237 6.89022C17.5162 6.89498 17.5085 6.89959 17.5007 6.90404L15.9554 7.83253L17.6251 8.51156C17.9305 8.64139 18.0728 8.99422 17.943 9.29964C17.8161 9.5982 17.4751 9.74212 17.1727 9.62479L14.6678 8.60617L11.6622 10.4125L14.6681 12.2185L17.1729 11.1999C17.4798 11.0747 17.8301 11.222 17.9552 11.5289C17.9554 11.5292 17.9555 11.5297 17.9557 11.53Z" fill="white"/>
</svg>

<svg width="21" height="21" fill="none" xmlns="http://www.w3.org/2000/svg"><circle cx="10.5" cy="10.5" r="10.5" fill="#005BFF"/><path d="M17.956 11.53a.601.601 0 01-.33.783l-1.67.679 1.545.928a.6.6 0 11-.62 1.03l-1.544-.928.184 1.793a.6.6 0 01-1.195.123l-.277-2.69-2.952-1.774v3.445l2.163 1.622a.601.601 0 01-.721.962l-1.442-1.082v1.803a.601.601 0 01-1.202 0V16.42l-1.442 1.082a.6.6 0 01-.722-.962l2.164-1.622v-3.445l-2.953 1.774-.276 2.69a.601.601 0 11-1.196-.122l.185-1.794-1.545.928a.6.6 0 11-.62-1.03l1.546-.928-1.67-.679A.6.6 0 013.82 11.2l2.504 1.019 3.006-1.807-3.006-1.806-2.505 1.02a.6.6 0 01-.452-1.114l1.67-.68-1.546-.928a.6.6 0 11.62-1.03l1.544.929-.184-1.794a.6.6 0 011.196-.122l.276 2.69L9.895 9.35V5.906L7.732 4.283a.6.6 0 11.72-.961l1.443 1.082V2.6a.6.6 0 111.202 0v1.803l1.442-1.082a.6.6 0 01.72.961l-2.162 1.623V9.35l2.952-1.775.277-2.69a.601.601 0 011.195.123l-.184 1.794 1.545-.929a.6.6 0 11.619 1.03l-1.546.929 1.67.679a.6.6 0 01-.452 1.113l-2.505-1.019-3.006 1.806 3.006 1.806 2.505-1.018a.6.6 0 01.782.329v.001z" fill="#fff"/></svg>
